lib/brands/icons/adobe-dreamweaver.svg

<svg xmlns="http://www.w3.org/2000/svg" fill="none" aria-hidden="true" viewBox="0 0 48 48"><g id="adobe-dreamweaver-Icon"><g id="Group"><path id="bg" fill="#470137" d="M6 19.0286C6 14.4681 6 12.1879 6.88752 10.4461C7.6682 8.9139 8.9139 7.6682 10.4461 6.88752C12.1879 6 14.4681 6 19.0286 6H28.9714C33.5319 6 35.8121 6 37.5539 6.88752C39.0861 7.6682 40.3318 8.9139 41.1125 10.4461C42 12.1879 42 14.4681 42 19.0286V28.9714C42 33.5319 42 35.8121 41.1125 37.5539C40.3318 39.0861 39.0861 40.3318 37.5539 41.1125C35.8121 42 33.5319 42 28.9714 42H19.0286C14.4681 42 12.1879 42 10.4461 41.1125C8.9139 40.3318 7.6682 39.0861 6.88752 37.5539C6 35.8121 6 33.5319 6 28.9714V19.0286Z"/><g id="Vector"><path fill="#FF61F6" d="M9.85811 32.6092V16.5673C9.84663 16.4659 9.92069 16.3722 10.0176 16.3655C11.4915 16.2584 12.9854 16.2902 14.4617 16.2899C17.3482 16.2899 20.2776 17.3352 21.6976 20.1616C22.2976 21.364 22.5977 22.7471 22.5978 24.3108C22.6154 25.4028 22.4574 26.4901 22.1306 27.5267C21.8484 28.4048 21.4159 29.2212 20.8543 29.9355C20.3313 30.5934 19.712 31.1596 19.0197 31.6129C16.4179 33.314 12.9485 33.0506 9.99482 32.8614C9.90366 32.8614 9.85808 32.7773 9.85811 32.6092ZM13.0031 19.3923V29.8346C16.4796 29.8346 19.3748 28.3623 19.316 24.3865C19.3924 20.3563 16.3509 19.1779 13.0031 19.3923Z"/><path fill="#FF61F6" d="M35.9398 32.8639H33.151C32.998 32.8858 32.9253 32.7444 32.8833 32.6117C32.3143 29.6681 31.7183 26.7698 31.1877 23.9097C30.5599 26.8184 29.9216 29.72 29.2244 32.6117C29.1944 32.78 29.1129 32.8639 28.979 32.8639H26.1902C26.0344 32.8815 25.9221 32.7904 25.8778 32.6369L22.9775 20.5298C22.9329 20.3954 22.9924 20.3282 23.156 20.328H25.9671C26.1009 20.328 26.1753 20.3785 26.1902 20.4794C26.8309 23.4507 27.3926 26.428 27.8635 29.4336C28.4402 26.4565 29.1107 23.4799 29.7152 20.5803C29.7283 20.4192 29.7779 20.3281 29.9383 20.3281H32.861C32.9503 20.3281 33.0022 20.3872 33.0172 20.5046C33.6718 23.467 34.1768 26.3782 34.6905 29.5345C35.3816 26.5621 35.781 23.5129 36.453 20.5298C36.4826 20.3954 36.5495 20.3282 36.6538 20.328H39.2641C39.3979 20.328 39.45 20.4037 39.4203 20.5551L36.2076 32.6369C36.1672 32.7706 36.0871 32.8833 35.9398 32.8639Z"/></g></g></g></svg>

<svg xmlns="http://www.w3.org/2000/svg" fill="none" aria-hidden="true" viewBox="0 0 48 48"><path fill="#470137" d="M6 19.029c0-4.56 0-6.841.888-8.583a8.143 8.143 0 0 1 3.558-3.558C12.188 6 14.468 6 19.03 6h9.942c4.56 0 6.841 0 8.583.888a8.143 8.143 0 0 1 3.558 3.558C42 12.188 42 14.468 42 19.03v9.942c0 4.56 0 6.841-.888 8.583a8.143 8.143 0 0 1-3.558 3.558C35.812 42 33.532 42 28.97 42h-9.94c-4.56 0-6.841 0-8.583-.888a8.143 8.143 0 0 1-3.558-3.558C6 35.812 6 33.532 6 28.97v-9.94Z"/><path fill="#FF61F6" d="M9.858 32.61V16.566c-.011-.101.063-.195.16-.201 1.474-.108 2.968-.076 4.444-.076 2.886 0 5.816 1.045 7.236 3.872.6 1.202.9 2.585.9 4.149.018 1.092-.14 2.18-.467 3.216a7.716 7.716 0 0 1-1.276 2.409 7.82 7.82 0 0 1-1.835 1.677c-2.602 1.701-6.071 1.438-9.025 1.248-.091 0-.137-.084-.137-.252Zm3.145-13.218v10.443c3.477 0 6.372-1.473 6.313-5.448.077-4.03-2.965-5.21-6.313-4.995ZM35.94 32.864h-2.789c-.153.022-.226-.12-.267-.252-.57-2.944-1.166-5.842-1.696-8.702a370.819 370.819 0 0 1-1.963 8.702c-.03.168-.112.252-.246.252H26.19c-.155.018-.268-.074-.312-.227l-2.9-12.107c-.045-.135.015-.202.178-.202h2.811c.134 0 .209.05.223.151a159.619 159.619 0 0 1 1.674 8.955c.576-2.978 1.247-5.954 1.851-8.854.014-.16.063-.252.224-.252h2.922c.09 0 .141.06.156.177.655 2.962 1.16 5.873 1.674 9.03.69-2.973 1.09-6.022 1.762-9.005.03-.135.097-.202.201-.202h2.61c.134 0 .186.076.156.227l-3.212 12.082c-.04.134-.12.246-.268.227Z"/></svg>
